X:865
T:Virginia Reel
R:reel
D:Dervish: Harmony Hill
Z:id:hn-reel-256
M:C|
L:1/8
K:D
|:DBBA ~B3A|BAdB AFEF|DF~F2 ~A3B|AFBF AFEF|
DBBA ~B3A|BAdB ABde|~f3e defe|dBAF BE~E2:|
|:defe d2dA|BAFA dAFA|defe defg|afbf afeg|
f2df efdB|AF~F2 ABde|~f3e defe|dBAF BE~E2:|
